svgs/duotone/transporter-4.svg

<svg xmlns="http://www.w3.org/2000/svg" viewBox="0 0 512 512"><!--! Font Awesome Pro 6.1.1 by @fontawesome - https://fontawesome.com License - https://fontawesome.com/license (Commercial License) Copyright 2022 Fonticons, Inc. --><defs><style>.fa-secondary{opacity:.4}</style></defs><path class="fa-primary" d="M384 448H128c-17.62 0-32 14.38-32 32v32h320v-32C416 462.4 401.6 448 384 448z"/><path class="fa-secondary" d="M509.8 172.4L480 160l-12.38-29.75C466.9 128.9 465.5 128 464 128s-2.875 .875-3.625 2.25L448 160l-29.75 12.38C416.9 173.1 416 174.5 416 176s.875 2.875 2.25 3.625L448 192l12.38 29.75C461.1 223.1 462.5 224 464 224s2.875-.875 3.625-2.25L480 192l29.75-12.38C511.1 178.9 512 177.5 512 176S511.1 173.1 509.8 172.4zM93.75 396.4L64 384l-12.38-29.75C50.88 352.9 49.5 352 48 352s-2.875 .875-3.625 2.25L32 384l-29.75 12.38C.875 397.1 0 398.5 0 400s.875 2.875 2.25 3.625L32 416l12.38 29.75C45.13 447.1 46.5 448 48 448s2.875-.875 3.625-2.25L64 416l29.75-12.38C95.13 402.9 96 401.5 96 400S95.13 397.1 93.75 396.4zM144 224h224C376.8 224 384 216.8 384 208S376.8 192 368 192h-224C135.2 192 128 199.2 128 208S135.2 224 144 224zM224 32h64c8.844 0 16-7.156 16-16S296.8 0 288 0H224C215.2 0 208 7.156 208 16S215.2 32 224 32zM224 96h64c8.844 0 16-7.156 16-16S296.8 64 288 64H224C215.2 64 208 71.16 208 80S215.2 96 224 96zM176 160h160C344.8 160 352 152.8 352 144S344.8 128 336 128h-160C167.2 128 160 135.2 160 144S167.2 160 176 160zM400 256h-288C103.2 256 96 263.2 96 272S103.2 288 112 288h288C408.8 288 416 280.8 416 272S408.8 256 400 256zM176 352h160c8.844 0 16-7.156 16-16S344.8 320 336 320h-160C167.2 320 160 327.2 160 336S167.2 352 176 352zM176 416h160c8.844 0 16-7.156 16-16S344.8 384 336 384h-160C167.2 384 160 391.2 160 400S167.2 416 176 416z"/></svg>

<svg xmlns="http://www.w3.org/2000/svg" viewBox="0 0 512 512"><!--! Font Awesome Pro 6.4.2 by @fontawesome - https://fontawesome.com License - https://fontawesome.com/license (Commercial License) Copyright 2023 Fonticons, Inc. --><path class="fa-primary" style="fill:var(--fa-primary-color,inherit);opacity:var(--fa-primary-opacity,1);" d="M128 448c-17.7 0-32 14.3-32 32s14.3 32 32 32H384c17.7 0 32-14.3 32-32s-14.3-32-32-32H128z"/><path class="fa-secondary" style="fill:var(--fa-secondary-color,inherit);opacity:var(--fa-secondary-opacity,.4);" d="M224 0c-8.8 0-16 7.2-16 16s7.2 16 16 16h64c8.8 0 16-7.2 16-16s-7.2-16-16-16H224zm0 64c-8.8 0-16 7.2-16 16s7.2 16 16 16h64c8.8 0 16-7.2 16-16s-7.2-16-16-16H224zm-48 64c-8.8 0-16 7.2-16 16s7.2 16 16 16H336c8.8 0 16-7.2 16-16s-7.2-16-16-16H176zm-32 64c-8.8 0-16 7.2-16 16s7.2 16 16 16H368c8.8 0 16-7.2 16-16s-7.2-16-16-16H144zm-32 64c-8.8 0-16 7.2-16 16s7.2 16 16 16H400c8.8 0 16-7.2 16-16s-7.2-16-16-16H112zm64 64c-8.8 0-16 7.2-16 16s7.2 16 16 16H336c8.8 0 16-7.2 16-16s-7.2-16-16-16H176zm0 64c-8.8 0-16 7.2-16 16s7.2 16 16 16H336c8.8 0 16-7.2 16-16s-7.2-16-16-16H176zM480 160l-7.3-25.4c-1.1-3.9-4.7-6.6-8.7-6.6s-7.6 2.7-8.7 6.6L448 160l-25.4 7.3c-3.9 1.1-6.6 4.7-6.6 8.7s2.7 7.6 6.6 8.7L448 192l7.3 25.4c1.1 3.9 4.7 6.6 8.7 6.6s7.6-2.7 8.7-6.6L480 192l25.4-7.3c3.9-1.1 6.6-4.7 6.6-8.7s-2.7-7.6-6.6-8.7L480 160zM56.7 358.6c-1.1-3.9-4.7-6.6-8.7-6.6s-7.6 2.7-8.7 6.6L32 384 6.6 391.3C2.7 392.4 0 395.9 0 400s2.7 7.6 6.6 8.7L32 416l7.3 25.4c1.1 3.9 4.7 6.6 8.7 6.6s7.6-2.7 8.7-6.6L64 416l25.4-7.3c3.9-1.1 6.6-4.7 6.6-8.7s-2.7-7.6-6.6-8.7L64 384l-7.3-25.4z"/></svg>
